!!!OTL: 1820. Hans Pitterken. / Liedchen zum Einschlaefern der Kinder.
!!!ARE: Europa, Mitteleuropa, Deutschland, Niederrhein, Meurs
!!!SCT: E1820
!!!TXL: @@NDS
!!!YEM: Copyright 1995, estate of Helmut Schaffrath.
**kern	**text
*ICvox	*
*M2/4	*
*k[]	*
*C:	*
!LO:TX:a:t=Mäßig.	!
!LO:TX:a:t=Vom Niederrhein (Mörs) 1839. Erk II. 3, 34.	!
{8g	1._Hans
=1	=1
8cc	Pitter-
8cc	-ken
8g	liet
8g	ſien
=2	=2
8a	Perdſche
8a	be-
8g	-ſchlön,
8r}	.
=3	=3
{8cc	liet_et
8cc	den
8g	ho-
8g	-gen
=4	=4
8a	Berg
8a	op-
8g}	-gön.
{8g	2._Den
=5	=5
8cc	ho-
8cc	-gen
8g	Berg,
8g	den
=6	=6
8a	tie-
8a	-pen
8g	Dal,
8r}	.
=7	=7
{8cc	wo
8cc	Hans
8g	Pitter-
8g	-ken
=8	=8
8a	ſter-
8a	-ven
8g}	ſall.
{8g	.
=9	=9
8cc	3._Stervt
8cc	hei
8g	dann,
8g	dann
=10	=10
8a	is
8a	hei
8g	doot,
8r}	.
=11	=11
{8cc	begravn
8cc	wir_öm
8g	onder
8g	de
=12	=12
8a	Ro-
8a	-ſen
8g	root.
8r}	.
=13	=13
{8ee	4._Wenn
8ee	die
8dd	Ro-
8cc	-ſen
=14	=14
4ee	fal-
8ee	-len,
8r}	.
=15	=15
{8dd	ſingen
8dd	die
8dd	Nach-
8ee	-te-
=16	=16
8cc	-gal-
8cc	.
8cc	-len.
8r}	.
=17	=17
{8ee	5._Wenn
8ee	die
8dd	Nach-
8cc	-te-
=18	=18
4ee	-gallen
8ee	ſengn,_ſall_Hans
8r}	.
=19	=19
{8dd	Pitter-
8dd	-ken
8dd	ut
8ee	dem
=20	=20
8cc	Gra-
8cc	-ve
8cc	ſprengn.
8r}	.
==	==
!!!AGN: Kinder -, Wiegen -, Schlaf - Lied
!!!ONB: ESAC (Essen Associative Code) Database: ERK3
!!!AMT: simple duple
!!!AIN: vox
!!!EED: Helmut Schaffrath
!!!EEV: 1.0
!!!GTL: Einige Kinderlieder. a) Wiegenlieder.
!!!URL-scan: https://rosdok.uni-rostock.de/mcrviewer/recordIdentifier/rosdok_ppn745177999/iview2/phys_0588.iview2?x=-4.404412318551749&y=1967.7066606394947&scale=0.6456904138606623&rotation=0&layout=singlePageLayout
!!!ENC: Anna Maria Matuszewska
!!!EEV: 2025/09/01
*-	*-
